X:49
T: Finnegan's Wake (Kate)
M: 4/4
L: 1/8
R: reel
K: Cmaj
G2|"C" EEE2 E2D2| "Am" E2A2 A2B2| "F" ccB2 A2G2| "G" E2D2 D2G2|
w: Tim Fin-ne-gan lived on Wal-kin St., a gen-tle-man I-rish might-y odd, He
   "C" E2 E2 E2D2| "Am" E2A2 A2AA| "F" c2BB A2G2| "G" AAB2 "C" c2zc|
w: had a tongue both rich and sweet, and to rise in the world he carr-ied a hod. Now,
"C" c2cc c2dd| "F" c2B2 A2GG| "C" c2cc c2d2| "F" c2B2 A2zG|
w: Tim was a man of the tip-pling way, with the love of the whis-key he was born,  To
"C" c2c2 c2dd| "F" c2B2 A2GG|A2AG A2G2| "G" A2B2 "C" c3z|
w: start him off on his work each day, he'd a drop of the cray-thur ev-'ry morn.
"C" E2EE E2D2| "Am" E2AA A2B2| "F" c3B A2G2| "G" ED3 D4|
w: Whack to the did-dle, dance to your part-ner, Let the floor your trot-ters shake.
"C" E3E E2D2| "Am" E2A2 A2B2| "F" c3B A2G2| "G" AAB2 "C" c4||
w: Was-n't it the truth I told you, Lots of fun at Fin-ne-gan's wake.
W: One morning Tim was rather full, his head was heavy which made him shake;
W: He fell from the ladder and broke his skull, so they brought him home his corpse to wake.
W: They laid him out on a nice clean sheet, and set him out upon his bed,
W: With a bottle of whisky at his feet and a barrel of porter at his head.
W:
W: The guests assembled at the wake and Mrs Finnegan sent for lunch;
W: They started out with tea and cake,  then whisky, wine, and beer and punch.
W: Ms Biddy O'Brien began to cry: "Such a nice clean corpse did you ever see!
W: Ah, Tim, mauvoreen, why did ye die?" "Hush your gob!" said Paddy McGee.
W:
W: Then Mrs O'Connor took up the job, and "Biddy," she said, "You're wrong, I'm sure."
W: But Biddy gave her a punch to the gob that left her sprawling on the floor.
W: 'Twas then it was did war engage; 'twas woman to woman and man to man;
W: Shillelagh law did all engage,  and a row and a ruction soon began.
W:
W: Mickey McGuire ducked his head,  a bottle of whisky thrown at him;
W: It fell and shattered on the bed, and splattered whisky over Tim.
W: Behold,  he revives,  see how he rises,  Timothy climbing from his bed,
W: Says,  "Throwin' your whisky around like blazes! Thanam O'Doul,  do ye think I'm dead?"

